X:1
T:Lagrimate occhi
T:André Vierendeels
T:Source : Melody in Tenor voice from "Corona di Sacre canzoni o Laude spirituali" Firenze---Eredi Francesco Orofri---1689. Editor : André Vierendeels (08/12/17). Notes : Original clef : C4, other voices suupplied editorially Original note values have been quartered Music compiled by Matteo Coferati
T:Lagrimate occhi
T:©
T:©
C:André Vierendeels
Z:©
%%score [ 1 2 3 ]
L:1/8
Q:1/4=95
M:3/4
K:C
V:1 treble nm="Soprano" snm="S"
V:2 treble nm="Alto" snm="A"
V:3 treble-8 nm="Tenor" snm="T"
V:1
"^1)" d4 B2 | A4 B2 | A2 B2 c2 | A4 G2 | c2 G2 c2 | d2 B2 B2 | A4 d2 | d6 :: B4 A2 | A4 c2 | %10
w: La- gri-|ma- te|oc- chi do-|len- ti,|ne fia po-|sa in voi|ma- i|piu.|con- tem-|plan- do'in|
w: Se pen-|san- do'all'|as- * pra|mor- te|si _ se|san- * gue'il|suo su-|dor,|qoan- t'o|quan- to'a-|
 d4 d2 | G2 c2 d2 | d4 d2 | G2 G2 B2 | d4 d2 | B6 :| %16
w: quai tor-|men- * t'in|mor- te'in|Cro- ce'il mi-|o Gie-|su.|
w: cer- bo,|e for- *|te, sia|poi sta- to'il|suo do-|lor!|
V:2
"^2)""^1)" B4 G2 | ^F4 G2 | A2 G2 G2 | E4 E2 | E2 C2 E2 | F2 G2 G2 | ^F2 D2 F2 | G6 :: G4 F2 | %9
w: La- gri-|ma- te|oc- chi do-|len- ti,|ne fia po-|sa in voi|ma- * i-|piu,|con- tem-|
w: Scher- ni,|spi- ne,|as- pri fla-|gel- li,|Chio- di, lan-|cia'- ce- to,|e _ _|fiel.|tutt' in-|
 F2 D2 E2 | ^F4 G2 | E4 G2 | G4 ^F2 | D2 E2 G2 | ^F4 G2 | G6 :| %16
w: plan- * do'in|quei tor-|men- t'in|mor- te'in|Cro- ce'il mi-|o Gie-|su.|
w: sie- * m'em-|pi'e ru-|bel- li|han- no|uc- ci- so'il|Re del|Ciel|
V:3
"^3)""^1)""^4)""^5)" z2 G2 G2 | d4 d2 | d2 d2 e2 | c4 c2 | c4 e2 | d2 d2 d2 | d4 A2 | B6 :: %8
w: La- gri-|ma- te|oc- chi do-|len- ti,|ne fia|po- sa'in voi|ma- i|piu,|
w: Sic- che|mi- r'A-|ni- ma mi-|* a,|dal- la|fron- te si-|no al|pie,|
w: Per- ch'i|fal- li|mie- i ne-|fan- di,|trop- p'o-|ma- i cre-|scin- ti|son,|
 z2 B2 c2 | d4 A2 | A4 B2 | c4 B2 | B4 A2 | B2 B2 B2 | A4 B2 | G6 :| %16
w: con- tem-|plan- do'in|quai tor-|men- t'in|mor- te'in|Cro- ce'il mi-|o Gie-|su.|
w: non vi'è|par- te,|che non|fi- a,|tut- ta|pia- ghe, ma|per- *|che?|
w: per- ch'i|miei pec-|ca- ti|gran- di,|su nel|Ciel ab- bian|par- *|don.|

